public/images/about/mongodb.svg

<svg xmlns="http://www.w3.org/2000/svg" width="1102" height="278" fill="none" viewBox="0 0 1102 278"><path fill="#00684A" d="M82.323 28.644C71.537 15.847 62.249 2.85 60.35.15c-.2-.2-.5-.2-.7 0-1.897 2.7-11.185 15.697-21.971 28.494C-54.902 146.721 52.26 226.406 52.26 226.406l.9.6C53.958 239.303 55.955 257 55.955 257h7.99s1.998-17.597 2.797-29.994l.899-.7c.1.1 107.263-79.585 14.68-197.662M59.95 224.706s-4.793-4.099-6.092-6.199v-.199l5.793-128.575c0-.4.6-.4.6 0l5.792 128.575v.199c-1.299 2.1-6.093 6.199-6.093 6.199m200.551-27.118L215.845 89.299l-.1-.299h-34.744v7.279h5.607c1.702 0 3.304.698 4.506 1.895 1.201 1.196 1.802 2.792 1.802 4.487l-1.001 108.986c0 3.39-2.803 6.182-6.208 6.282l-5.707.1v7.179h33.843v-7.179l-3.505-.1c-3.404-.1-6.208-2.892-6.208-6.282V108.943l48.662 116.265c.7 1.695 2.302 2.792 4.105 2.792 1.802 0 3.404-1.097 4.105-2.792l47.56-113.673.701 100.112c0 3.49-2.804 6.282-6.308 6.382h-3.605v7.179H339v-7.179h-5.407c-3.404 0-6.208-2.892-6.308-6.282l-.3-108.987c0-3.49 2.803-6.282 6.208-6.381l5.807-.1V89h-33.843zm311.368 18.548c-1.105-1.096-1.707-2.59-1.707-4.382v-53.385c0-10.159-3.011-18.127-9.035-23.804-5.922-5.677-14.154-8.565-24.393-8.565-14.356 0-25.699 5.777-33.63 17.131-.1.199-.401.299-.702.299-.302 0-.502-.2-.502-.498l-3.715-14.243h-6.224L476 137.753v4.979h4.116c1.907 0 3.513.498 4.618 1.494 1.104.996 1.706 2.49 1.706 4.582v62.846c0 1.793-.602 3.287-1.706 4.382-1.105 1.096-2.61 1.693-4.417 1.693h-4.016V225h36.741v-7.271h-4.015c-1.807 0-3.313-.597-4.417-1.693-1.104-1.095-1.707-2.589-1.707-4.382v-41.632c0-5.279 1.205-10.557 3.414-15.736 2.308-5.08 5.721-9.362 10.239-12.649 4.517-3.287 9.938-4.88 16.162-4.88 7.027 0 12.348 2.191 15.66 6.573 3.313 4.382 5.02 10.059 5.02 16.832v51.392c0 1.793-.603 3.287-1.707 4.383-1.104 1.095-2.61 1.693-4.417 1.693h-4.015v7.27H580v-7.27h-4.015c-1.506.199-2.912-.399-4.116-1.494M907.546 97.212C897.39 91.804 886.039 89 873.792 89H826v7.31h4.68c1.792 0 3.385.702 4.978 2.304 1.494 1.502 2.29 3.205 2.29 5.007v107.758c0 1.802-.796 3.505-2.29 5.007s-3.186 2.303-4.978 2.303H826V226h47.792c12.247 0 23.598-2.804 33.754-8.212s18.42-13.42 24.394-23.634S941 171.621 941 157.6c0-14.02-3.086-26.238-9.06-36.553-6.074-10.415-14.239-18.427-24.394-23.835m14.238 60.188c0 12.819-2.29 23.634-6.771 32.347s-10.455 15.222-17.823 19.428c-7.367 4.207-15.532 6.31-24.294 6.31h-9.658c-1.792 0-3.385-.701-4.978-2.304-1.494-1.502-2.29-3.204-2.29-5.007V106.526c0-1.803.697-3.405 2.29-5.008 1.493-1.502 3.186-2.303 4.978-2.303h9.658c8.762 0 16.927 2.103 24.294 6.309s13.343 10.716 17.823 19.429 6.771 19.628 6.771 32.447m132.186 7.311c-4.42-5.108-12.95-9.414-22.98-11.718 13.85-6.91 20.97-16.624 20.97-29.142 0-6.81-1.8-12.919-5.42-18.127-3.61-5.207-8.73-9.413-15.25-12.318-6.53-2.904-14.16-4.406-22.79-4.406h-54.098v7.31h4.316c1.806 0 3.412.702 5.018 2.304 1.506 1.502 2.309 3.205 2.309 5.007v107.758c0 1.802-.803 3.505-2.309 5.007-1.505 1.502-3.212 2.303-5.018 2.303H954V226h58.72c8.93 0 17.26-1.502 24.79-4.507s13.55-7.41 17.87-13.219c4.41-5.808 6.62-12.919 6.62-21.131-.1-8.813-2.71-16.324-8.03-22.432m-67.349 48.57c-1.506-1.502-2.309-3.204-2.309-5.007v-48.37h27.908c9.83 0 17.36 2.503 22.58 7.51q7.83 7.511 7.83 19.529c0 4.807-1.21 9.514-3.41 13.82-2.31 4.407-5.73 7.912-10.34 10.616-4.52 2.704-10.14 4.106-16.66 4.106h-20.581c-1.806.1-3.412-.701-5.018-2.204m-2.208-63.693v-42.962c0-1.803.702-3.405 2.308-5.008 1.506-1.502 3.212-2.303 5.019-2.303h13.25c9.53 0 16.56 2.404 20.98 7.01 4.41 4.707 6.62 10.716 6.62 18.127 0 7.611-2.11 13.72-6.22 18.327-4.12 4.506-10.34 6.809-18.57 6.809zm-552.414-17.201c-7.67-4.191-16.236-6.387-25.499-6.387s-17.929 2.096-25.499 6.387c-7.67 4.192-13.746 10.28-18.228 17.965S356 167.02 356 177s2.291 18.963 6.773 26.648 10.558 13.773 18.228 17.965c7.67 4.191 16.236 6.387 25.499 6.387s17.929-2.096 25.499-6.387c7.67-4.192 13.746-10.28 18.228-17.965S457 186.98 457 177s-2.291-18.963-6.773-26.648q-6.723-11.527-18.228-17.965M439.37 177c0 12.276-2.988 22.256-8.965 29.442-5.876 7.186-13.944 10.879-23.905 10.879s-18.029-3.693-23.905-10.879c-5.977-7.186-8.965-17.166-8.965-29.442s2.988-22.256 8.965-29.442c5.876-7.186 13.945-10.879 23.905-10.879s18.029 3.693 23.905 10.879c5.977 7.285 8.965 17.166 8.965 29.442m345.629-44.613c-7.67-4.191-16.236-6.387-25.499-6.387s-17.929 2.096-25.499 6.387c-7.67 4.192-13.746 10.28-18.228 17.965S709 167.02 709 177s2.291 18.963 6.773 26.648 10.558 13.773 18.228 17.965c7.67 4.191 16.236 6.387 25.499 6.387s17.929-2.096 25.499-6.387c7.67-4.192 13.746-10.28 18.228-17.965S810 186.98 810 177s-2.291-18.963-6.773-26.648-10.658-13.673-18.228-17.965M792.37 177c0 12.276-2.989 22.256-8.965 29.442-5.877 7.186-13.945 10.879-23.905 10.879s-18.029-3.693-23.905-10.879c-5.977-7.186-8.965-17.166-8.965-29.442 0-12.376 2.988-22.256 8.965-29.442 5.876-7.186 13.944-10.879 23.905-10.879s18.028 3.693 23.905 10.879c5.877 7.285 8.965 17.166 8.965 29.442m-149.73-51q-12.038 0-21.969 5.113c-6.621 3.409-11.837 8.022-15.549 13.937-3.711 5.815-5.617 12.333-5.617 19.251 0 6.216 1.404 11.931 4.313 17.045 2.809 4.913 6.621 9.023 11.436 12.432l-14.345 19.452c-1.806 2.406-2.006 5.614-.702 8.221 1.404 2.707 4.012 4.312 7.022 4.312h4.113c-4.013 2.707-7.223 5.915-9.43 9.725-2.608 4.312-3.912 8.823-3.912 13.435 0 8.623 3.812 15.742 11.335 21.056 7.424 5.314 17.856 8.021 30.997 8.021 9.129 0 17.856-1.504 25.781-4.412 8.025-2.907 14.545-7.219 19.36-12.833 4.916-5.615 7.424-12.433 7.424-20.254 0-8.221-3.01-14.037-10.032-19.651-6.018-4.713-15.448-7.219-27.185-7.219h-40.125c-.1 0-.201-.101-.201-.101s-.1-.2 0-.3l10.433-14.037a37 37 0 0 0 7.724 2.606c2.407.502 5.116.702 8.125.702 8.427 0 16.051-1.704 22.671-5.113s11.938-8.021 15.75-13.937c3.811-5.815 5.717-12.332 5.717-19.25 0-7.42-3.611-20.956-13.442-27.874 0-.1.101-.1.101-.1L694 138.633v-9.926h-34.508Q651.367 126 642.64 126m12.037 62.665c-3.812 2.005-7.925 3.108-12.037 3.108-6.721 0-12.64-2.406-17.656-7.119s-7.523-11.63-7.523-20.453c0-8.824 2.508-15.742 7.523-20.454 5.016-4.713 10.935-7.119 17.656-7.119 4.213 0 8.225 1.003 12.037 3.108 3.812 2.005 6.922 5.114 9.43 9.224 2.407 4.111 3.711 9.225 3.711 15.241 0 6.116-1.204 11.229-3.711 15.24-2.408 4.11-5.618 7.219-9.43 9.224m-27.185 36.997h27.185c7.524 0 12.339 1.504 15.549 4.713s4.815 7.519 4.815 12.533c0 7.319-2.909 13.335-8.727 17.847s-13.643 6.818-23.273 6.818c-8.427 0-15.449-1.905-20.565-5.515s-7.724-9.124-7.724-16.142c0-4.412 1.204-8.523 3.612-12.132 2.407-3.61 5.316-6.217 9.128-8.122m454.858-1.335c-1.98-1.083-3.47-2.658-4.66-4.528-1.09-1.968-1.69-4.035-1.69-6.299s.6-4.429 1.69-6.299c1.09-1.969 2.68-3.445 4.66-4.528 1.99-1.082 4.17-1.673 6.65-1.673s4.66.591 6.65 1.673c1.98 1.083 3.47 2.658 4.66 4.528 1.09 1.968 1.69 4.035 1.69 6.299s-.6 4.429-1.69 6.299c-1.09 1.969-2.68 3.445-4.66 4.528-1.99 1.082-4.17 1.673-6.65 1.673-2.38 0-4.66-.591-6.65-1.673m12.21-1.477c1.68-.885 2.88-2.263 3.87-3.838a11.8 11.8 0 0 0 1.39-5.61c0-2.067-.5-3.937-1.39-5.611a9.15 9.15 0 0 0-3.87-3.838c-1.69-.886-3.48-1.378-5.56-1.378s-3.87.492-5.56 1.378c-1.68.886-2.88 2.264-3.87 3.838a11.8 11.8 0 0 0-1.39 5.611c0 2.066.5 3.937 1.39 5.61a9.14 9.14 0 0 0 3.87 3.838c1.69.886 3.48 1.378 5.56 1.378s3.97-.492 5.56-1.378m-10.92-3.444v-.886l.2-.099h.6c.19 0 .39-.098.49-.197.2-.196.2-.295.2-.492v-9.153c0-.197-.1-.394-.2-.492-.2-.197-.3-.197-.49-.197h-.6l-.2-.099v-.885l.2-.099h5.16c1.49 0 2.58.295 3.47.984.9.689 1.29 1.575 1.29 2.756 0 .886-.29 1.772-.99 2.362-.69.689-1.49 1.083-2.48 1.182l1.19.393 2.28 3.642c.2.295.4.394.7.394h.59l.1.098v.886l-.1.098h-3.07l-.2-.098-3.18-5.315h-.79v3.543c0 .197.1.394.2.492.2.197.3.197.49.197h.6l.2.099v.886l-.2.098h-5.26zm5.06-6.398c.8 0 1.49-.197 1.89-.689.39-.394.69-1.083.69-1.87s-.2-1.378-.59-1.87c-.4-.492-1-.689-1.69-.689h-.4a.74.74 0 0 0-.49.197c-.2.196-.2.295-.2.492v4.429z"/></svg>

<svg width="1102" height="278" viewBox="0 0 1102 278" fill="none" xmlns="http://www.w3.org/2000/svg">
<path d="M82.3229 28.6444C71.5367 15.8469 62.2485 2.84945 60.351 0.149971C60.1512 -0.0499903 59.8515 -0.0499903 59.6518 0.149971C57.7542 2.84945 48.4661 15.8469 37.6798 28.6444C-54.9019 146.721 52.2613 226.406 52.2613 226.406L53.1601 227.006C53.959 239.303 55.9565 257 55.9565 257H59.9514H63.9463C63.9463 257 65.9438 239.403 66.7428 227.006L67.6416 226.306C67.7414 226.406 174.905 146.721 82.3229 28.6444ZM59.9514 224.706C59.9514 224.706 55.1576 220.607 53.8592 218.507V218.308L59.6518 89.7325C59.6518 89.3326 60.2511 89.3326 60.2511 89.7325L66.0436 218.308V218.507C64.7453 220.607 59.9514 224.706 59.9514 224.706Z" fill="#00684A"/>
<path d="M260.501 197.588L215.845 89.2991L215.745 89H181.001V96.279H186.608C188.31 96.279 189.912 96.9771 191.114 98.1736C192.315 99.3702 192.916 100.966 192.916 102.661L191.915 211.647C191.915 215.037 189.112 217.829 185.707 217.929L180 218.029V225.208H213.843V218.029L210.338 217.929C206.934 217.829 204.13 215.037 204.13 211.647V108.943L252.792 225.208C253.492 226.903 255.094 228 256.897 228C258.699 228 260.301 226.903 261.002 225.208L308.562 111.535L309.263 211.647C309.263 215.137 306.459 217.929 302.955 218.029H299.35V225.208H339V218.029H333.593C330.189 218.029 327.385 215.137 327.285 211.747L326.985 102.76C326.985 99.2704 329.788 96.4785 333.193 96.3788L339 96.279V89H305.157L260.501 197.588Z" fill="#00684A"/>
<path d="M571.869 216.136C570.764 215.04 570.162 213.546 570.162 211.754V158.369C570.162 148.21 567.151 140.242 561.127 134.565C555.205 128.888 546.973 126 536.734 126C522.378 126 511.035 131.777 503.104 143.131C503.004 143.33 502.703 143.43 502.402 143.43C502.1 143.43 501.9 143.23 501.9 142.932L498.185 128.689H491.961L476 137.753V142.732H480.116C482.023 142.732 483.629 143.23 484.734 144.226C485.838 145.222 486.44 146.716 486.44 148.808V211.654C486.44 213.447 485.838 214.941 484.734 216.036C483.629 217.132 482.124 217.729 480.317 217.729H476.301V225H513.042V217.729H509.027C507.22 217.729 505.714 217.132 504.61 216.036C503.506 214.941 502.903 213.447 502.903 211.654V170.022C502.903 164.743 504.108 159.465 506.317 154.286C508.625 149.206 512.038 144.924 516.556 141.637C521.073 138.35 526.494 136.757 532.718 136.757C539.745 136.757 545.066 138.948 548.378 143.33C551.691 147.712 553.398 153.389 553.398 160.162V211.554C553.398 213.347 552.795 214.841 551.691 215.937C550.587 217.032 549.081 217.63 547.274 217.63H543.259V224.9H580V217.63H575.985C574.479 217.829 573.073 217.231 571.869 216.136Z" fill="#00684A"/>
<path d="M907.546 97.212C897.39 91.8041 886.039 89 873.792 89H826V96.3107H830.68C832.472 96.3107 834.065 97.0117 835.658 98.6141C837.152 100.116 837.948 101.819 837.948 103.621V211.379C837.948 213.181 837.152 214.884 835.658 216.386C834.165 217.888 832.472 218.689 830.68 218.689H826V226H873.792C886.039 226 897.39 223.196 907.546 217.788C917.701 212.38 925.966 204.368 931.94 194.154C937.914 183.939 941 171.621 941 157.6C941 143.58 937.914 131.362 931.94 121.047C925.866 110.632 917.701 102.62 907.546 97.212ZM921.784 157.4C921.784 170.219 919.494 181.034 915.013 189.747C910.533 198.46 904.558 204.969 897.19 209.175C889.823 213.382 881.658 215.485 872.896 215.485H863.238C861.446 215.485 859.853 214.784 858.26 213.181C856.766 211.679 855.97 209.977 855.97 208.174V106.526C855.97 104.723 856.667 103.121 858.26 101.518C859.753 100.016 861.446 99.2149 863.238 99.2149H872.896C881.658 99.2149 889.823 101.318 897.19 105.524C904.558 109.73 910.533 116.24 915.013 124.953C919.494 133.665 921.784 144.581 921.784 157.4Z" fill="#00684A"/>
<path d="M1053.97 164.711C1049.55 159.603 1041.02 155.297 1030.99 152.993C1044.84 146.083 1051.96 136.369 1051.96 123.851C1051.96 117.041 1050.16 110.932 1046.54 105.724C1042.93 100.517 1037.81 96.3106 1031.29 93.4064C1024.76 90.5022 1017.13 89 1008.5 89H954.402V96.3107H958.718C960.524 96.3107 962.13 97.0117 963.736 98.614C965.242 100.116 966.045 101.819 966.045 103.621V211.379C966.045 213.181 965.242 214.884 963.736 216.386C962.231 217.888 960.524 218.689 958.718 218.689H954V226H1012.72C1021.65 226 1029.98 224.498 1037.51 221.493C1045.04 218.489 1051.06 214.083 1055.38 208.274C1059.79 202.466 1062 195.355 1062 187.143C1061.9 178.33 1059.29 170.819 1053.97 164.711ZM986.621 213.281C985.115 211.779 984.312 210.077 984.312 208.274V159.904H1012.22C1022.05 159.904 1029.58 162.407 1034.8 167.414C1040.02 172.422 1042.63 178.931 1042.63 186.943C1042.63 191.75 1041.42 196.457 1039.22 200.763C1036.91 205.17 1033.49 208.675 1028.88 211.379C1024.36 214.083 1018.74 215.485 1012.22 215.485H991.639C989.833 215.585 988.227 214.784 986.621 213.281ZM984.413 149.588V106.626C984.413 104.823 985.115 103.221 986.721 101.618C988.227 100.116 989.933 99.315 991.74 99.315H1004.99C1014.52 99.315 1021.55 101.719 1025.97 106.325C1030.38 111.032 1032.59 117.041 1032.59 124.452C1032.59 132.063 1030.48 138.172 1026.37 142.779C1022.25 147.285 1016.03 149.588 1007.8 149.588H984.413Z" fill="#00684A"/>
<path d="M431.999 132.387C424.329 128.196 415.763 126 406.5 126C397.237 126 388.571 128.096 381.001 132.387C373.331 136.579 367.255 142.667 362.773 150.352C358.291 158.037 356 167.02 356 177C356 186.98 358.291 195.963 362.773 203.648C367.255 211.333 373.331 217.421 381.001 221.613C388.671 225.804 397.237 228 406.5 228C415.763 228 424.429 225.904 431.999 221.613C439.669 217.421 445.745 211.333 450.227 203.648C454.709 195.963 457 186.98 457 177C457 167.02 454.709 158.037 450.227 150.352C445.745 142.667 439.669 136.679 431.999 132.387ZM439.37 177C439.37 189.276 436.382 199.256 430.405 206.442C424.529 213.628 416.461 217.321 406.5 217.321C396.54 217.321 388.471 213.628 382.595 206.442C376.618 199.256 373.63 189.276 373.63 177C373.63 164.724 376.618 154.744 382.595 147.558C388.471 140.372 396.54 136.679 406.5 136.679C416.461 136.679 424.529 140.372 430.405 147.558C436.382 154.843 439.37 164.724 439.37 177Z" fill="#00684A"/>
<path d="M784.999 132.387C777.329 128.196 768.763 126 759.5 126C750.237 126 741.571 128.096 734.001 132.387C726.331 136.579 720.255 142.667 715.773 150.352C711.291 158.037 709 167.02 709 177C709 186.98 711.291 195.963 715.773 203.648C720.255 211.333 726.331 217.421 734.001 221.613C741.671 225.804 750.237 228 759.5 228C768.763 228 777.429 225.904 784.999 221.613C792.669 217.421 798.745 211.333 803.227 203.648C807.709 195.963 810 186.98 810 177C810 167.02 807.709 158.037 803.227 150.352C798.745 142.667 792.569 136.679 784.999 132.387ZM792.37 177C792.37 189.276 789.381 199.256 783.405 206.442C777.528 213.628 769.46 217.321 759.5 217.321C749.539 217.321 741.471 213.628 735.595 206.442C729.618 199.256 726.63 189.276 726.63 177C726.63 164.624 729.618 154.744 735.595 147.558C741.471 140.372 749.539 136.679 759.5 136.679C769.46 136.679 777.528 140.372 783.405 147.558C789.282 154.843 792.37 164.724 792.37 177Z" fill="#00684A"/>
<path d="M642.64 126C634.614 126 627.292 127.704 620.671 131.113C614.05 134.522 608.834 139.135 605.122 145.05C601.411 150.865 599.505 157.383 599.505 164.301C599.505 170.517 600.909 176.232 603.818 181.346C606.627 186.259 610.439 190.369 615.254 193.778L600.909 213.23C599.103 215.636 598.903 218.844 600.207 221.451C601.611 224.158 604.219 225.763 607.229 225.763H611.342C607.329 228.47 604.119 231.678 601.912 235.488C599.304 239.8 598 244.311 598 248.923C598 257.546 601.812 264.665 609.335 269.979C616.759 275.293 627.191 278 640.332 278C649.461 278 658.188 276.496 666.113 273.588C674.138 270.681 680.658 266.369 685.473 260.755C690.389 255.14 692.897 248.322 692.897 240.501C692.897 232.28 689.887 226.464 682.865 220.85C676.847 216.137 667.417 213.631 655.68 213.631H615.555C615.455 213.631 615.354 213.53 615.354 213.53C615.354 213.53 615.254 213.33 615.354 213.23L625.787 199.193C628.596 200.496 631.204 201.298 633.511 201.799C635.918 202.301 638.627 202.501 641.636 202.501C650.063 202.501 657.687 200.797 664.307 197.388C670.928 193.979 676.245 189.367 680.057 183.451C683.868 177.636 685.774 171.119 685.774 164.201C685.774 156.781 682.163 143.245 672.332 136.327C672.332 136.227 672.433 136.227 672.433 136.227L694 138.633V128.707H659.492C654.075 126.902 648.458 126 642.64 126ZM654.677 188.665C650.865 190.67 646.752 191.773 642.64 191.773C635.919 191.773 630 189.367 624.984 184.654C619.969 179.942 617.461 173.024 617.461 164.201C617.461 155.377 619.969 148.459 624.984 143.747C630 139.034 635.919 136.628 642.64 136.628C646.853 136.628 650.865 137.631 654.677 139.736C658.489 141.741 661.599 144.85 664.107 148.96C666.514 153.071 667.818 158.185 667.818 164.201C667.818 170.317 666.614 175.43 664.107 179.441C661.699 183.551 658.489 186.66 654.677 188.665ZM627.492 225.662H654.677C662.201 225.662 667.016 227.166 670.226 230.375C673.436 233.583 675.041 237.894 675.041 242.908C675.041 250.227 672.132 256.243 666.314 260.755C660.495 265.267 652.671 267.573 643.041 267.573C634.614 267.573 627.592 265.668 622.476 262.058C617.36 258.449 614.752 252.934 614.752 245.916C614.752 241.504 615.956 237.393 618.364 233.784C620.771 230.174 623.68 227.567 627.492 225.662Z" fill="#00684A"/>
<path d="M1082.35 224.327C1080.37 223.244 1078.88 221.669 1077.69 219.799C1076.6 217.831 1076 215.764 1076 213.5C1076 211.236 1076.6 209.071 1077.69 207.201C1078.78 205.232 1080.37 203.756 1082.35 202.673C1084.34 201.591 1086.52 201 1089 201C1091.48 201 1093.66 201.591 1095.65 202.673C1097.63 203.756 1099.12 205.331 1100.31 207.201C1101.4 209.169 1102 211.236 1102 213.5C1102 215.764 1101.4 217.929 1100.31 219.799C1099.22 221.768 1097.63 223.244 1095.65 224.327C1093.66 225.409 1091.48 226 1089 226C1086.62 226 1084.34 225.409 1082.35 224.327ZM1094.56 222.85C1096.24 221.965 1097.44 220.587 1098.43 219.012C1099.32 217.339 1099.82 215.468 1099.82 213.402C1099.82 211.335 1099.32 209.465 1098.43 207.791C1097.53 206.118 1096.24 204.839 1094.56 203.953C1092.87 203.067 1091.08 202.575 1089 202.575C1086.92 202.575 1085.13 203.067 1083.44 203.953C1081.76 204.839 1080.56 206.217 1079.57 207.791C1078.68 209.465 1078.18 211.335 1078.18 213.402C1078.18 215.468 1078.68 217.339 1079.57 219.012C1080.47 220.685 1081.76 221.965 1083.44 222.85C1085.13 223.736 1086.92 224.228 1089 224.228C1091.08 224.228 1092.97 223.736 1094.56 222.85ZM1083.64 219.406V218.52L1083.84 218.421H1084.44C1084.63 218.421 1084.83 218.323 1084.93 218.224C1085.13 218.028 1085.13 217.929 1085.13 217.732V208.579C1085.13 208.382 1085.03 208.185 1084.93 208.087C1084.73 207.89 1084.63 207.89 1084.44 207.89H1083.84L1083.64 207.791V206.906L1083.84 206.807H1089C1090.49 206.807 1091.58 207.102 1092.47 207.791C1093.37 208.48 1093.76 209.366 1093.76 210.547C1093.76 211.433 1093.47 212.319 1092.77 212.909C1092.08 213.598 1091.28 213.992 1090.29 214.091L1091.48 214.484L1093.76 218.126C1093.96 218.421 1094.16 218.52 1094.46 218.52H1095.05L1095.15 218.618V219.504L1095.05 219.602H1091.98L1091.78 219.504L1088.6 214.189H1087.81V217.732C1087.81 217.929 1087.91 218.126 1088.01 218.224C1088.21 218.421 1088.31 218.421 1088.5 218.421H1089.1L1089.3 218.52V219.406L1089.1 219.504H1083.84L1083.64 219.406ZM1088.7 213.008C1089.5 213.008 1090.19 212.811 1090.59 212.319C1090.98 211.925 1091.28 211.236 1091.28 210.449C1091.28 209.661 1091.08 209.071 1090.69 208.579C1090.29 208.087 1089.69 207.89 1089 207.89H1088.6C1088.4 207.89 1088.21 207.988 1088.11 208.087C1087.91 208.283 1087.91 208.382 1087.91 208.579V213.008H1088.7Z" fill="#00684A"/>
</svg>
